X:1
T:Moments Misicaux, Opus 94 - No. 3 n F minor
T:Moments Musicaux, Opus 94 No. 3 in F minor 
T:Franz Schubert (1797 - 1828)
C:Franz Schubert (1797 - 1828)
%%score { ( 1 3 ) | 2 }
L:1/8
Q:1/8=160
M:2/4
K:Ab
V:1 treble nm="Piano" snm="Pno."
V:3 treble 
V:2 bass 
V:1
"^Allegro moderato," z4 | z4 ||{/B} .AA/B/ .A.G |{/AB} !>![Ac]2{/AB} !>![Ac]2 | %4
{/B} .AA/B/ .A.[Gc] |{/c} !>![Af]2{/c} !>![Af]2 |{/_g} ff/=g/ ff | fb/ z/ [_Af]2 | %8
 [Ac]/[GB]/[FA]/[GB]/ c/d/c/=e/ | [Acf]2 [Acf]2 |{/B} .AA/B/ .A.G |{/AB} !>![Ac]2{/AB} !>![Ac]2 | %12
{/B} .AA/B/ .A.[Gc] |{/c} !>![Af]2{/c} !>![Af]2 |{/_g} ff/g/ ff | fb/ z/ [_Af]2 | %16
 [Ac]/[GB]/[FA]/[GB]/ c/d/c/=e/ | [Acf]2 [Acf]2 ||!p! !>!c2 !>!c2 | c/d/e/d/ d>c | %20
{/c} BB (c/B/A/B/) | (B2 c2) |{/e} !>![ca]2{/e} !>![ca]2 | [eg]/[df]/[c=e]/[df]/ [df]2 | %24
 f/_e/ [de]2 [de] | [Ace]2 [Ace]2 | !>!c2 !>!c2 | c/d/e/d/ d>c |{/c} BB (c/B/A/B/) | (B2 c2) | %30
{/e} !>![ca]2{/e} !>![ca]2 | [eg]/[df]/[c=e]/[df]/ [df]2 | f/_e/ [de]2 [de] | [Ace]2 [Ace]2 || %34
!f! !>![GBc=e]2 !>![GBce]2 |{/f} aa/g/ f_e/d/ | .[GBc]2 !>![GBc=e]2 |{/f} aa/g/ f_e/d/ | %38
!p! [Ac]2!<(! [_Gc]2!<)! |!>(! [Fc]/d/e/d/ [Fd][Ec]/!p![DB]/!>)! | [CA][CA] [CA]/[DB]/[Ec]/[DB]/ | %41
 [CA]2 [CA]2 |!f! !>![GBc=e]2 !>![GBce]2 |{/f} aa/g/ f_e/d/ | .[GBc]2 !>![GBc=e]2 | %45
{/f} aa/g/ f_e/d/ |!p! [Ac]2!<(! [_Gc]2!<)! |!>(! [Fc]/d/e/d/ [Fd][Ec]/!p![DB]/!>)! | %48
 [CA][CA] [CA]/[DB]/[Ec]/[DB]/ | [CA]2 [CA]2 ||!pp!{/B} .AA/B/ .A.G |{/AB} !>![Ac]2{/AB} !>![Ac]2 | %52
{/B} .AA/B/ .A.[Gc] |{/c} !>![Af]2{/c} !>![Af]2 |{/_g} ff/g/ ff | fb/ z/ [_Af]2 | %56
 [Ac]/[GB]/[FA]/[GB]/ c/d/c/=e/ | [Acf]2 [Acf]2 |{/a} gg/a/!<(! gg!<)! |!>(! b a2!>)! g/f/ | %60
 cc/d/ c=e | [Acf]2 [Acf]2 |!ppp!{/a} gg/a/!<(! gg!<)! |!>(! b a2!>)! g/f/ |"^dim."{/=d} cc/d/ cd | %65
{/=d} cc/d/ cd |{/=d} cc/d/ c=e | [=Af]2 [Af]2 |{/=d} cc/d/ c=A | [=EB]2 [EB]2 |{/c} BB/c/ B=E | %71
 [=A,F]2 [A,F]2 |{/=d} cc/d/ c=A | [=EB]2 [EB]2 |{/c} BB/c/ B=E |"^rit." [=A,F]2 [A,F]2 | %76
 [=A,F]2 [A,F]2 | !fermata![=A,F]4 |] %78
V:2
!p! .F,.[CF] .F,.[CF] | .F,.[CF] .F,.[CF] || F,[CF] F,[C=E] | F,[CF] F,[CF] | F,[CF] F,[C=E] | %5
 F,[CF] F,[CF] | D,[DF] C,[CEF] | B,,[B,DF] F,[CF] | C,[CF] C,[C=E] | F,[CF] F,[CF] | %10
 F,[CF] F,[C=E] | F,[CF] F,[CF] | F,[CF] F,[C=E] | F,[CF] F,[CF] | D,[DF] C,[CEF] | %15
 B,,[B,DF] F,[CF] | C,[CF] C,[C=E] | F,[CF] F,[CF] ||[K:treble] A,[CEA] A,[CEA] | %19
 A,[B,EG] A,[B,EG] | A,[DEG] A,[DEG] | A,[CEA] A,[CEA] | A,[CEA] A,[CEA] |[K:bass] D,[DF] D,[DF] | %24
 E,[B,DE] E,[B,DE] | A,[CE] A,[CE] |[K:treble] A,[CEA] A,[CEA] | A,[B,EG] A,[B,EG] | %28
 A,[DEG] A,[DEG] | A,[CEA] A,[CEA] | A,[CEA] A,[CEA] |[K:bass] D,[DF] D,[DF] | E,[B,DE] E,[B,DE] | %33
 A,[CE] A,[CE] || C,[C=E] C,[CE] | C,[CF] C,[CF] | C,[C=E] C,[C=E] | C,[CF] F,[CF] | %38
 A,,[A,C] =A,,[_G,C] | B,,[F,B,] D,,[D,F,] | E,,[E,A,] E,,[E,G,] | A,,[E,A,] A,,[E,A,] | %42
 C,[C=E] C,[CE] | C,[CF] C,[CF] | C,[C=E] C,[CE] | C,[CF] F,[CF] | A,,[A,C] =A,,[_G,C] | %47
 B,,[F,B,] D,,[D,F,] | E,,[E,A,] E,,[E,G,] | A,,[E,A,] A,,[E,A,] || F,[CF] F,[C=E] | %51
 F,[CF] F,[CF] | F,[CF] F,[C=E] | F,[CF] F,[CF] | D,[DF] C,[CEF] | B,,[B,DF] F,[CF] | %56
 C,[CF] C,[C=E] | F,[CF] F,[CF] | B,,[B,D] B,,[B,D] | =B,,[=B,=D] B,,[B,D] | C,[CF] C,[C=E] | %61
 F,[CF] F,[CF] | B,,[B,D] B,,[B,D] | =B,,[=B,=D] B,,[B,D] | C,[CF] C,[C=E] | C,[CF] C,[C=E] | %66
 C,[CF] C,[CG] | F,,[C,F,] F,,[C,F,] | F,,[C,F,] F,,[C,F,] | F,,[C,G,] F,,[C,G,] | %70
 F,,[C,G,] F,,[C,G,] | F,,[C,F,] F,,[C,F,] | F,,[C,F,] F,,!>![C,^F,] | F,,[C,G,] F,,[C,G,] | %74
 F,,[C,G,] F,,!>![C,G,] | F,,[C,F,] F,,[C,F,] | F,,[C,F,] F,,[C,F,] | !fermata![F,,C,F,]4 |] %78
V:3
 x4 | x4 || x4 | x4 | x4 | x4 | AA =AA | B3/2 z/ z2 | z2 A[GB] | x4 | x4 | x4 | x4 | x4 | AA =AA | %15
 B3/2 x5/2 | x2 A[GB] | x4 || x4 | x4 | x4 | x4 | x4 | x4 | [Gd]G/A/ BA/G/ | x4 | x4 | x4 | x4 | %29
 x4 | x4 | x4 | [Gd]G/A/ BA/G/ | x4 || x4 | [Ac] [Ac]3 | x4 | [Ac] [Ac]3 | x4 | x4 | x4 | x4 | x4 | %43
 [Ac] [Ac]3 | x4 | [Ac] [Ac]3 | x4 | x4 | x4 | x4 || x4 | x4 | x4 | x4 | AA =AA | B3/2 x5/2 | %56
 x2 A[GB] | x4 | =e e2 e | f3 z | A A2 [GBc] | x4 | =e e2 e | f3 z | =A A2 B | =A A2 B | =A A2 B | %67
 x4 | =A A2 F | x4 | =E E2 B, | x4 | =A A2 E | x4 | =E E2 B, | x4 | x4 | x4 |] %78

